X:1
T:Sonata K. 63
T:Sonata K. 63
T:Capriccio
T:Domenico Scarlatti (1685-1757)
T:Public Domain (PianoXML typeset)
T:Public Domain (PianoXML typeset)
C:Domenico Scarlatti (1685-1757)
Z:Public Domain (PianoXML typeset)
%%score { ( 1 4 ) | ( 2 3 ) }
L:1/8
Q:1/4=100
M:2/4
K:G
V:1 treble nm="Piano" snm="Pno."
V:4 treble 
V:2 bass 
V:3 bass 
V:1
!f!"^Allegro" !5!g2 Pf2 | (gf/g/ .G)!4!e | (dg)(Pdc) | (P!3!BA/B/ .G).!4!e | !2!dg Pdc | %5
 (P!3!BA/B/!f! .G).b | (aA) (Gg) | (P!3!fe/f/ .d).g | (fd) (Pe!1!d/!3!^c/ | !4!d^c/d/ .A/)(a/g/a/ | %10
 A/g/f/g/ A/!4!f/e/f/ | A/!3!e/d/e/ A/)(a/g/a/ | A/g/f/g/ A/f/e/f/ | A/e/d/e/ A2) | z (!2!e a).d | %15
 .^c.d !tenuto!e2 | z (e a).d | (Ag) (f/d/g/e/ | a/d/g/e/ f/d/!4!e/^c/) | (!4!d!2!AFf) | %20
 (!4!e^cGg) | (fdAa) | (Bbge) | P!3!^cB/c/ A!p!!4!a | _b/!1!d/-!2!^c/!1!d/ (fg) | %25
 a/d/-!2!^c/!1!d/ (e=f) | g/(d/^c/!1!d/) !3!eg | =f/!1!A/-!2!^G/!1!A/ !3!df | _e/=G/-F/G/ e!1!d | %29
 ga^fe | f2 e2 | d2 z2 ::!f! !5!d2 P^c2 | (d^c/d/ D)!5!B | A2 G2 | (PFE/F/ D)!p!B | A2 G2 | %37
 PFE/F/!<(! D!5!d-!<)! | [Bd] [A=c]2 [^GB] | (PcB/c/ !1!A)=f | e2 d2 | (PcB/!3!c/ A)!p!=f | e2 d2 | %43
!mf! !2!c/e/d/e/ c/e/B/e/ | A/e/d/e/ A/e/G/e/ | !2!F/A/G/A/ F/A/E/A/ | D/!5!A/G/A/ D/A/C/A/ | %47
 (B,DGB) | C(FA)c | D(GB)d | (EAce) | PF(E/F/ D)!p!!4!d | _e/(!1!G/!2!F/!1!G/) (Bc) | %53
 d/(G/!2!F/!1!G/) (A_B) |"_cresc." c/(G/F/!1!G/) (Ac) | !4!_B/(D/!2!^C/!1!D/) G!f!B | %56
 !4!_A/(!2!_E/!1!D/!2!E/) c2- | cd=BA | [GB]2 [FA]2 | G2 z2 :| %60
V:2
 [G,,B,,G,]2 [A,,C,F,]2 | [B,,D,G,]2 z [CE] | D2 C2 | [G,B,]2 z [CE] | D2 C2 | [G,B,]2 z G, | %6
 z D2 ^C | [D,D]2 z !2!B, | (!1!A,A,,) (G,,G,) | F,2 z [F,A,] | [^C,E,A,]2 [D,F,A,]2 | %11
 [A,,E,A,]2 z [F,A,] | [^C,E,A,]2 [D,F,A,]2 | [A,,E,A,]2 z/!f! (A,/^G,/A,/ | %14
 A,,/=G,/F,/G,/ A,,/F,/E,/F,/ | A,,/E,/D,/E,/ A,,/)!mf!(A,/G,/A,/ | A,,/G,/F,/G,/ A,,/F,/E,/F,/ | %17
 A,,/E,/D,/^C,/ .D,).E, | .F,.G, .A,.A,, | (D,F,A,D) | (E,G,^CE) | (F,A,DF) | G,2 G,,2 | %23
 A,,2 z F, | !tenuto!G,2 z G | =F2 z !3!=F, | E,2 z !1!E | D2 z !3!D, | G,2 z [G,,G,] | %29
 [A,,A,][^C,^C][D,D][G,,G,] | [A,,A,]2 [A,,A,]2 | [D,,D,]2 z2 :: [D,F,]2 [E,G,]2 | %33
 [F,A,]2 z [G,B,] | A,2 G,2 | [D,F,]2 z [G,B,] | A,2 G,2 | [D,F,]2 z/ D/^C/D/ | !5-1!E,2 E,,2 | %39
 A,,2 z [D=F] | E2 D2 | [A,C]2 z [D=F] | E2 D2 | [A,C]2 z [B,D] | [CE]2 z [C,E,] | %45
 [D,F,]2 z [E,G,] | [F,A,]2 z D, | (G,D,B,,G,,) | (A,F,C,A,,) | (B,G,D,B,,) | (CA,E,C,) | D,2 z D | %52
 C2 z C, | _B,,2 z _B, | A,2 z A,, | G,,2 z [G,,G,] | [C,C]2 z [C,C] | D,F,G,C, | !1!D,2 D,,2 | %59
 G,,2 z2 :| %60
V:3
 x4 | x4 | B,G,A,D, | x4 | B,G,A,D, | x4 | F,2 E,2 | x4 | x4 | x4 | x4 | x4 | x4 | x4 | x4 | x4 | %16
 x4 | x4 | x4 | x4 | x4 | x4 | x4 | x4 | x4 | x4 | x4 | x4 | x4 | x4 | x4 | x4 :: x4 | x4 | %34
 F,D,!2!E,A,, | x4 | F,D,E,A,, | x4 | x4 | x4 | CA,B,E, | x4 | CA,B,E, | x4 | x4 | x4 | x4 | x4 | %48
 x4 | x4 | x4 | x4 | x4 | x4 | x4 | x4 | x4 | x4 | x4 | x4 :| %60
V:4
 x4 | x4 | x4 | x4 | x4 | x4 | x4 | x4 | x4 | x4 | x4 | x4 | x4 | x4 | x4 | x4 | x4 | x4 | x4 | %19
 x4 | x4 | x4 | x4 | x4 | x4 | x4 | x4 | x4 | x4 | ^c2 d2 | d2 ^c2 | x4 :: x4 | x4 | x4 | x4 | x4 | %37
 x4 | D4 | x4 | x4 | x4 | x4 | x4 | x4 | x4 | x4 | x4 | x4 | x4 | x4 | x4 | x4 | x4 | x4 | x4 | %56
 x2 _AG | ^F2 G2 | x4 | x4 :| %60

